X:1
T: Heswall and West Kirby Jubilee
N:
C:Pat Shaw
S:Play  4  times
A:
O:
R:
M:4/4
K:D
I:speed 200
%W: A1
% voice 1 (1 lines, 32 notes)
K:D
M:4/4
L:1/16
A4 |d8 f6 g2 |a4 f4 e4 d4 |c8 e6 g2 |g4 e4 d4 c4 |d4 c2 B2 A4 F4 |B4 A2 G2 F4 D4 |G4 F2 G2 A4 A4 |D12 A4 |
%W: A2
% voice 1 (1 lines, 31 notes)
d8 f6 g2 |a4 f4 e4 d4 |c8 e6 g2 |g4 e4 d4 c4 |d4 c2 B2 A4 F4 |B4 A2 G2 F4 D4 |G4 F2 G2 A4 A4 |D12 F4 |
%W: B1
% voice 1 (1 lines, 41 notes)
B8 B4 d2 c2 |B2 c2 d2 e2 f4 B4 |c4 d2 e2 d4 c4 |d4 B8 A4 |d8 d4 f2 e2 |d2 e2 f2 g2 a4 f4 |g4 a2 g2 f4 g2 f2 |e2 d2 c2 B2 A4 B2 c2 |
%W: B2
% voice 1 (1 lines, 31 notes)
d8 f6 g2 |a4 f4 d4 A4 |B8 e6 f2 |g4 e4 c4 A4 |d4 c2 B2 A4 F4 |B4 A2 G2 F4 a4 |g2 f2 e2 d2 f4 e4 |d12 ||
